!! 00000] TT[WS
!!!OTL: Zhong yangyan
!!!ARE: Asia, China, Shanxi Lishan
!! Ethnic Group: Han
!! WII, 206 (2)
!!!SCT: J0709
!!!YEM: Copyright 1995, estate of Helmut Schaffrath.
**kern
*ICvox
*Ivox
*M2/4
*k[f#c#g#]
*A:
{8b
8ee
8ff#
16ee
16ee
=1
8.f#
16a
4b
=2
8b
8ee
8ff#
16ee
16ee
=3
8.a
16f#
16e
16f#
8e}
=4
{8a
8a
8b
8ee
=5
8ee
4a
8f#
=6
8e
8f#
16e
16f#
16c#
16c#
=7
2B}
==
!!!AGN: Xiaodiao. Shidiao
!!!ONB: ESAC (Essen Associative Code) Database: CHINA
!!!AMT: simple duple
!!!AIN: vox
!!!EED: Helmut Schaffrath
!!!EEV: 1.0
*-
